X:53
T:Bonny Lass of Ballantrae
R:Reel
B:The Athole Collection
M:C|
L:1/8
K:F
f|cFAc dfef|cFAF GDDd|cFAc dfeg|afce ~f2f:|
c|fcfa gceg|(f/g/a) gf ecce|fcfa gcgb|afce f2 fc|fcfa gceg|
f/g/a gf eccf|dBfd cFAc|dfeg ~f2f||

